X:2792
T:Alcester
C:Samuel Sebastian Wesley
Z:Transcribed by John Henckel
F:http://abc.musicaviva.com/tunes/wesley-samuel-sebastian/wesley-alcester.abc
%Posted at abcusers Oct 7th 2000 as an example of the output from his
%midi to abc script.
% SeqName = , 77.77
% Text = By  (1810-1876)
% Copyright = Public domain
% Text = Generated by NoteWorthy
%%staves (1 2) (3 4)
M:4/4
L:1/4
K:E
V: 1
  B G/ F/ E B | e c B2 | A G c B | A G F2 |
  E F G E | B A F2 | B/ A/ G/ F/ E A | G F E4 |]
V: 2
  E E E D | E E E2 | D E E E | E/ D/ E D2 |
  B, D B, B, | E E D2 | E E E E | E D E4 |]
V: 3
  G, B, E, F, | B, A, G,2 | B, B, A, B, | B, B, B,2 |
  B, B, B, G, | B, C B,2 | B, B,/ A,/ G, C | B,3/2 A,/ G,4 |]
V: 4
  E, B,, C, B,,/ A,,/ | G,, A,, E,2 | F, E, A, G, | F, E, B,,2 |
  G, B, E, E, | G,, A,, B,,2 | G,, B,, C, A,, | B,, B,, E,4 |]
W:
W:
W:  From Musica Viva - http://www.musicaviva.com
W:  the Internet center for free sheet music downloads.
